Adwaita++/apps/symbolic/arduino-symbolic.svg

<svg height="16" viewBox="0 0 16 16" width="16" xmlns="http://www.w3.org/2000/svg">
  <g fill="#474747">
    <path d="m2.81425 8.275433v-.770884h2.37304v.770884z"/>
    <path d="m11.529982 8.988392v-.727133h-.722203v-.748083h.722203v-.721587h.751166v.721587h.721586v.748083h-.721586v.727133z"/>
    <path d="m1.331639 7.996904v.000616c0 .323512.067167.643943.197188.940343.128789.291469.313653.555208.543501.775813.23601.226151.513306.406085.815867.528711.325361.13187.673522.198421 1.024148.195341.064703.004313.129405.006162.194724.006162.18548.000617.370345-.017254.552128-.053611.159599-.032659.316118-.081956.465858-.147275.145426-.06347.284075-.141113.414712-.23108.136183-.094898.265588-.20027.385133-.315502.130022-.125091.252648-.257577.366648-.396226.123859-.150972.24094-.306258.352474-.466474.11893-.170691.233545-.343847.345081-.520084.07641-.121395.15282-.244021.228615-.366031-.017254-.02773-.034508-.054843-.051762-.082573-.118313-.186713-.24094-.370345-.36788-.550896-.120162-.171307-.247718-.337685-.381436-.498517-.126325-.150972-.261275-.293934-.404853-.428268-.135567-.126941-.280994-.242173-.435048-.345697-.150972-.101059-.311187-.187945-.478798-.258193-.176853-.073946-.360485-.129405-.54843-.166378-.215059-.041286-.434431-.061622-.653803-.060389-.34508-.000616-.687079.065319-1.007511.19534-.302561.122627-.579857.302561-.815867.529328-.229848.219988-.414712.483728-.543501.775197-.130021.296399-.197188.61683-.197188.940343zm6.668669-1.286039c.036972-.054227.074561-.107837.112151-.162065.141729-.201501.291469-.397457.449836-.586635.160832-.192259.333372-.374658.516388-.546582.187944-.175621.389447-.336453.603273-.480031.222453-.148508.458463-.276064.705565-.380204.261275-.10907.532409-.191026.810322-.245253.29948-.057308.603273-.085654.908299-.085038.515772-.000616 1.027846.099211 1.506027.293318.459697.186097.879338.458463 1.237358.802311.355556.340766.640863.748084.839901 1.199152.205199.465858.310572.968689.310572 1.477682 0 .508377-.105373 1.011823-.310572 1.477065-.199038.451068-.484345.858386-.839901 1.199769-.35802.343231-.777661.615597-1.237358.802311-.473252.191642-.979164.290852-1.490005.292702-.075178.003697-.150973.005546-.22615.005546-.274832.001231-.549047-.025881-.818333-.080108-.252032-.051146-.498517-.128789-.734528-.231081-.224917-.098594-.43936-.218139-.640862-.35802-.194724-.134951-.378355-.285307-.549047-.449221-.168226-.161447-.325977-.332139-.473252-.512073-.146043-.177469-.285307-.361102-.416561-.549663-.089967-.129405-.17747-.260043-.263123-.391912m6.668669-1.205315c0-.000616 0-.000616 0-.000616v.000616c0 .323512-.067168.643943-.197805.940343-.128788.291469-.313653.555208-.543501.775813-.236009.226151-.51269.406085-.815867.528711-.324745.13187-.672906.198421-1.023532.195341-.065318.004313-.130021.006162-.194724.006162-.18548.000617-.370344-.017254-.552127-.053611-.160216-.032659-.316118-.081956-.465859-.147275-.145426-.06347-.284074-.141113-.414711-.23108-.1368-.094898-.265589-.20027-.38575-.315502-.129405-.125091-.252032-.257577-.366031-.396226-.123859-.150972-.241556-.306258-.352475-.466474-.11893-.170691-.234162-.343847-.34508-.520084-.077027-.121395-.152821-.244021-.228615-.366031.017254-.02773.034508-.054843.051762-.082573.117697-.186713.240323-.370345.367264-.550896.120161-.171307.247717-.337685.382052-.498517.125707-.150972.261274-.293934.404236-.428268.135567-.126941.280994-.242173.435047-.345697.15159-.101059.311805-.187945.479415-.258193.176237-.073946.359869-.129405.547814-.166378.215675-.041286.434431-.061622.653803-.060389.345081-.000616.687696.065319 1.007511.19534.303177.122627.579858.302561.815867.529328.229848.219988.414713.483728.543501.775197.130637.296399.197805.61683.197805.940343m-6.668669-1.286039c-.036973-.054227-.074562-.107837-.112768-.162065-.141112-.201501-.291469-.397457-.449219-.586635-.160832-.192259-.333372-.374658-.516388-.546582-.187945-.175621-.390064-.336453-.60389-.480031-.222453-.148508-.458463-.276064-.704949-.380204-.261274-.10907-.533025-.191026-.810938-.245253-.298863-.057308-.603273-.085654-.907683-.085038-.516387-.000616-1.027845.099211-1.506027.293318-.459696.186097-.879954.458463-1.237358.802311-.356172.340766-.641479.748084-.840516 1.199152-.204583.465858-.310572.968689-.310572 1.477682 0 .508377.105989 1.011823.310572 1.477065.199037.451068.484344.858386.840516 1.199769.357404.343231.777662.615597 1.236742.802311.473868.191642.979164.290852 1.490005.292702.075795.003697.150973.005546.226767.005546.274216.001231.548431-.025881.818333-.080108.252031-.051146.4979-.128789.734527-.231081.224302-.098594.438744-.218139.640246-.35802.194724-.134951.378972-.285307.549663-.449221.16761-.161447.325361-.332139.473253-.512073.146042-.177469.284691-.361102.415944-.549663.089967-.129405.178086-.260043.26374-.391912" fill-rule="evenodd"/>
  </g>
</svg>

<svg xmlns="http://www.w3.org/2000/svg" style="isolation:isolate" width="16" height="16" viewBox="0 0 16 16">
 <defs>
  <style id="current-color-scheme" type="text/css">
   .ColorScheme-Text { color:#444; } .ColorScheme-Highlight { color:#5294e2; }
  </style>
  <linearGradient id="arrongin" x1="0%" x2="0%" y1="0%" y2="100%">
   <stop offset="0%" style="stop-color:#dd9b44"/>
   <stop offset="100%" style="stop-color:#ad6c16"/>
  </linearGradient>
  <linearGradient id="aurora" x1="0%" x2="0%" y1="0%" y2="100%">
   <stop offset="0%" style="stop-color:#09D4DF"/>
   <stop offset="100%" style="stop-color:#9269F4"/>
  </linearGradient>
  <linearGradient id="fitdance" x1="0%" x2="0%" y1="0%" y2="100%">
   <stop offset="0%" style="stop-color:#1AD6AB"/>
   <stop offset="100%" style="stop-color:#329DB6"/>
  </linearGradient>
  <linearGradient id="oomox" x1="0%" x2="0%" y1="0%" y2="100%">
   <stop offset="0%" style="stop-color:#efefe7"/>
   <stop offset="100%" style="stop-color:#8f8f8b"/>
  </linearGradient>
  <linearGradient id="rainblue" x1="0%" x2="0%" y1="0%" y2="100%">
   <stop offset="0%" style="stop-color:#00F260"/>
   <stop offset="100%" style="stop-color:#0575E6"/>
  </linearGradient>
  <linearGradient id="sunrise" x1="0%" x2="0%" y1="0%" y2="100%">
   <stop offset="0%" style="stop-color:#FF8501"/>
   <stop offset="100%" style="stop-color:#FFCB01"/>
  </linearGradient>
  <linearGradient id="telinkrin" x1="0%" x2="0%" y1="0%" y2="100%">
   <stop offset="0%" style="stop-color:#b2ced6"/>
   <stop offset="100%" style="stop-color:#6da5b7"/>
  </linearGradient>
  <linearGradient id="60spsycho" x1="0%" x2="0%" y1="0%" y2="100%">
   <stop offset="0%" style="stop-color:#df5940"/>
   <stop offset="25%" style="stop-color:#d8d15f"/>
   <stop offset="50%" style="stop-color:#e9882a"/>
   <stop offset="100%" style="stop-color:#279362"/>
  </linearGradient>
  <linearGradient id="90ssummer" x1="0%" x2="0%" y1="0%" y2="100%">
   <stop offset="0%" style="stop-color:#f618c7"/>
   <stop offset="20%" style="stop-color:#94ffab"/>
   <stop offset="50%" style="stop-color:#fbfd54"/>
   <stop offset="100%" style="stop-color:#0f83ae"/>
  </linearGradient>
  <linearGradient id="cyberneon" x1="0%" x2="0%" y1="0%" y2="100%">
   <stop offset="0" style="stop-color:#0abdc6"/>
   <stop offset="1" style="stop-color:#ea00d9"/>
  </linearGradient>
 </defs>
 <path style="fill:currentColor" class="ColorScheme-Text" d="M 2.81425 8.275433 L 2.81425 7.504549 L 5.18729 7.504549 L 5.18729 8.275433 L 2.81425 8.275433 Z"/>
 <path style="fill:currentColor" class="ColorScheme-Text" d="M 11.529982 8.988392 L 11.529982 8.261259 L 10.807779 8.261259 L 10.807779 7.513176 L 11.529982 7.513176 L 11.529982 6.791589 L 12.281148 6.791589 L 12.281148 7.513176 L 13.002734 7.513176 L 13.002734 8.261259 L 12.281148 8.261259 L 12.281148 8.988392 L 11.529982 8.988392 Z"/>
 <path style="fill:currentColor" fill-rule="evenodd" class="ColorScheme-Text" d="M 1.331639 7.996904 C 1.331639 7.996904 1.331639 7.996904 1.331639 7.99752 L 1.331639 7.99752 L 1.331639 7.99752 C 1.331639 8.321032 1.398806 8.641463 1.528827 8.937863 C 1.657616 9.229332 1.84248 9.493071 2.072328 9.713676 C 2.308338 9.939827 2.585634 10.119761 2.888195 10.242387 C 3.213556 10.374257 3.561717 10.440808 3.912343 10.437728 C 3.977046 10.442041 4.041748 10.44389 4.107067 10.44389 C 4.292547 10.444507 4.477412 10.426636 4.659195 10.390279 C 4.818794 10.35762 4.975313 10.308323 5.125053 10.243004 C 5.270479 10.179534 5.409128 10.101891 5.539765 10.011924 C 5.675948 9.917026 5.805353 9.811654 5.924898 9.696422 C 6.05492 9.571331 6.177546 9.438845 6.291546 9.300196 C 6.415405 9.149224 6.532486 8.993938 6.64402 8.833722 C 6.76295 8.663031 6.877565 8.489875 6.989101 8.313638 C 7.065511 8.192243 7.141921 8.069617 7.217716 7.947607 C 7.200462 7.919877 7.183208 7.892764 7.165954 7.865034 C 7.047641 7.678321 6.925014 7.494689 6.798074 7.314138 C 6.677912 7.142831 6.550356 6.976453 6.416638 6.815621 C 6.290313 6.664649 6.155363 6.521687 6.011785 6.387353 C 5.876218 6.260412 5.730791 6.14518 5.576737 6.041656 C 5.425765 5.940597 5.26555 5.853711 5.097939 5.783463 C 4.921086 5.709517 4.737454 5.654058 4.549509 5.617085 C 4.33445 5.575799 4.115078 5.555463 3.895706 5.556696 C 3.550626 5.55608 3.208627 5.622015 2.888195 5.752036 C 2.585634 5.874663 2.308338 6.054597 2.072328 6.281364 C 1.84248 6.501352 1.657616 6.765092 1.528827 7.056561 C 1.398806 7.35296 1.331639 7.673391 1.331639 7.996904 Z M 8.000308 6.710865 C 8.03728 6.656638 8.074869 6.603028 8.112459 6.5488 C 8.254188 6.347299 8.403928 6.151343 8.562295 5.962165 C 8.723127 5.769906 8.895667 5.587507 9.078683 5.415583 C 9.266627 5.239962 9.46813 5.07913 9.681956 4.935552 C 9.904409 4.787044 10.140419 4.659488 10.387521 4.555348 C 10.648796 4.446278 10.91993 4.364322 11.197843 4.310095 C 11.497323 4.252787 11.801116 4.224441 12.106142 4.225057 C 12.621914 4.224441 13.133988 4.324268 13.612169 4.518375 C 14.071866 4.704472 14.491507 4.976838 14.849527 5.320686 C 15.205083 5.661452 15.49039 6.06877 15.689428 6.519838 C 15.894627 6.985696 16 7.488527 16 7.99752 C 16 8.505897 15.894627 9.009343 15.689428 9.474585 C 15.49039 9.925653 15.205083 10.332971 14.849527 10.674354 C 14.491507 11.017585 14.071866 11.289951 13.612169 11.476665 C 13.138917 11.668307 12.633005 11.767517 12.122164 11.769367 C 12.046986 11.773064 11.971191 11.774913 11.896014 11.774913 C 11.621182 11.776144 11.346967 11.749032 11.077681 11.694805 C 10.825649 11.643659 10.579164 11.566016 10.343153 11.463724 C 10.118236 11.36513 9.903793 11.245585 9.702291 11.105704 C 9.507567 10.970753 9.323936 10.820397 9.153244 10.656483 C 8.985018 10.495036 8.827267 10.324344 8.679992 10.14441 C 8.533949 9.966941 8.394685 9.783308 8.263431 9.594747 C 8.173464 9.465342 8.085961 9.334704 8.000308 9.202835 M 14.668977 7.99752 M 14.668977 7.99752 L 14.668977 7.99752 C 14.668977 7.996904 14.668977 7.996904 14.668977 7.996904 C 14.668977 7.996904 14.668977 7.996904 14.668977 7.99752 L 14.668977 7.99752 C 14.668977 8.321032 14.601809 8.641463 14.471172 8.937863 C 14.342384 9.229332 14.157519 9.493071 13.927671 9.713676 C 13.691662 9.939827 13.414981 10.119761 13.111804 10.242387 C 12.787059 10.374257 12.438898 10.440808 12.088272 10.437728 C 12.022954 10.442041 11.958251 10.44389 11.893548 10.44389 C 11.708068 10.444507 11.523204 10.426636 11.341421 10.390279 C 11.181205 10.35762 11.025303 10.308323 10.875562 10.243004 C 10.730136 10.179534 10.591488 10.101891 10.460851 10.011924 C 10.324051 9.917026 10.195262 9.811654 10.075101 9.696422 C 9.945696 9.571331 9.823069 9.438845 9.70907 9.300196 C 9.585211 9.149224 9.467514 8.993938 9.356595 8.833722 C 9.237665 8.663031 9.122433 8.489875 9.011515 8.313638 C 8.934488 8.192243 8.858694 8.069617 8.7829 7.947607 C 8.800154 7.919877 8.817408 7.892764 8.834662 7.865034 C 8.952359 7.678321 9.074985 7.494689 9.201926 7.314138 C 9.322087 7.142831 9.449643 6.976453 9.583978 6.815621 C 9.709685 6.664649 9.845252 6.521687 9.988214 6.387353 C 10.123781 6.260412 10.269208 6.14518 10.423261 6.041656 C 10.574851 5.940597 10.735066 5.853711 10.902676 5.783463 C 11.078913 5.709517 11.262545 5.654058 11.45049 5.617085 C 11.666165 5.575799 11.884921 5.555463 12.104293 5.556696 C 12.449374 5.55608 12.791989 5.622015 13.111804 5.752036 C 13.414981 5.874663 13.691662 6.054597 13.927671 6.281364 C 14.157519 6.501352 14.342384 6.765092 14.471172 7.056561 C 14.601809 7.35296 14.668977 7.673391 14.668977 7.996904 M 8.000308 6.710865 C 7.963335 6.656638 7.925746 6.603028 7.88754 6.5488 C 7.746428 6.347299 7.596071 6.151343 7.438321 5.962165 C 7.277489 5.769906 7.104949 5.587507 6.921933 5.415583 C 6.733988 5.239962 6.531869 5.07913 6.318043 4.935552 C 6.09559 4.787044 5.85958 4.659488 5.613094 4.555348 C 5.35182 4.446278 5.080069 4.364322 4.802156 4.310095 C 4.503293 4.252787 4.198883 4.224441 3.894473 4.225057 C 3.378086 4.224441 2.866628 4.324268 2.388446 4.518375 C 1.92875 4.704472 1.508492 4.976838 1.151088 5.320686 C 0.794916 5.661452 0.509609 6.06877 0.310572 6.519838 C 0.105989 6.985696 0 7.488527 0 7.99752 C 0 8.505897 0.105989 9.009343 0.310572 9.474585 C 0.509609 9.925653 0.794916 10.332971 1.151088 10.674354 C 1.508492 11.017585 1.92875 11.289951 2.38783 11.476665 C 2.861698 11.668307 3.366994 11.767517 3.877835 11.769367 C 3.95363 11.773064 4.028808 11.774913 4.104602 11.774913 C 4.378818 11.776144 4.653033 11.749032 4.922935 11.694805 C 5.174966 11.643659 5.420835 11.566016 5.657462 11.463724 C 5.881764 11.36513 6.096206 11.245585 6.297708 11.105704 C 6.492432 10.970753 6.67668 10.820397 6.847371 10.656483 C 7.014981 10.495036 7.172732 10.324344 7.320624 10.14441 C 7.466666 9.966941 7.605315 9.783308 7.736568 9.594747 C 7.826535 9.465342 7.914654 9.334704 8.000308 9.202835"/>
</svg>
